image/copyright-footer.svg

<svg width="138" height="41" viewBox="0 0 138 41" fill="none" xmlns="http://www.w3.org/2000/svg">
<g clip-path="url(#clip0)">
<path d="M6.93068 14.0603C5.22981 14.0821 3.60693 14.7726 2.41738 15.9808C1.22783 17.1889 0.568563 18.8162 0.583922 20.5062C0.557122 21.3475 0.702001 22.1855 1.00983 22.9697C1.31766 23.7539 1.78207 24.4681 2.37508 25.0691C2.9681 25.6702 3.67743 26.1458 4.46036 26.4673C5.24329 26.7887 6.08361 26.9493 6.93068 26.9395C7.77706 26.9396 8.61503 26.7726 9.39595 26.4483C10.1769 26.124 10.8852 25.6488 11.4798 25.0503C12.0744 24.4518 12.5434 23.742 12.8597 22.9619C13.176 22.1819 13.3332 21.3472 13.3222 20.5062C13.3324 18.8101 12.6653 17.179 11.4672 15.9707C10.2691 14.7624 8.63774 14.0754 6.93068 14.0603ZM12.3954 20.5062C12.4205 21.2326 12.2973 21.9564 12.0333 22.6342C11.7694 23.3119 11.3701 23.9296 10.8595 24.45C10.3489 24.9704 9.7376 25.3827 9.0624 25.6621C8.3872 25.9415 7.66207 26.0822 6.93068 26.0758C6.20067 26.0815 5.47708 25.94 4.80363 25.66C4.13019 25.38 3.52086 24.9673 3.01247 24.4467C2.50409 23.9261 2.1072 23.3085 1.84578 22.6313C1.58436 21.954 1.46385 21.2311 1.49151 20.5062C1.46636 19.7786 1.59013 19.0535 1.85534 18.3747C2.12055 17.696 2.52167 17.0779 3.0344 16.5577C3.54713 16.0376 4.1608 15.6263 4.83822 15.3487C5.51565 15.0712 6.24273 14.9332 6.97542 14.943C7.70301 14.9409 8.42355 15.0846 9.09389 15.3657C9.76424 15.6468 10.3706 16.0594 10.8767 16.5788C11.3827 17.0983 11.7781 17.7138 12.039 18.3887C12.3 19.0635 12.4212 19.7838 12.3954 20.5062Z" fill="#C6C6C6"/>
<path d="M22.3151 20.284C22.6399 19.933 22.8896 19.5201 23.0489 19.0703C23.2082 18.6205 23.2739 18.1432 23.2418 17.6675C23.2035 15.4511 21.6951 14.073 19.3047 14.073H15.6679V26.9458H16.5947V21.3382H18.282L22.3726 26.5457L22.6922 26.9458H23.8554L19.3814 21.3064C20.4554 21.3544 21.5065 20.988 22.3151 20.284ZM16.5627 14.9557H19.3111C21.2285 14.9557 22.3598 15.9719 22.3598 17.6738C22.3598 19.579 21.3436 20.4618 19.2408 20.4618H16.5947L16.5627 14.9557Z" fill="#C6C6C6"/>
<path d="M25.4213 14.9621H28.5851V26.8188H29.4863V14.9621H32.6501V14.0603H25.4213V14.9621Z" fill="#C6C6C6"/>
<path d="M34.8105 26.9458H40.9718V26.0313H35.7308V20.9698H40.9015V20.049H35.7308V14.9875H40.9718V14.073H34.8105V26.9458Z" fill="#C6C6C6"/>
<path d="M63.1056 14.1619V14.0603H61.8529L57.1871 26.9395H58.1905L59.8076 22.2844H65.087L66.7807 26.9395H67.7778C67.7778 26.9395 65.381 20.4935 63.1056 14.1619ZM64.8057 21.4398H60.1399L62.4473 14.9875L64.8057 21.4398Z" fill="#C6C6C6"/>
<path d="M98.6935 20.284C99.0253 19.9365 99.2817 19.5249 99.4466 19.0748C99.6115 18.6246 99.6815 18.1456 99.6522 17.6675C99.6522 15.4511 98.1118 14.073 95.715 14.073H92.0591V26.9458H92.9795V21.3382H94.6668L99.077 26.9458H100.221L95.7853 21.3064C96.8507 21.3478 97.8914 20.9819 98.6935 20.284ZM95.5936 20.4618H92.9475V14.9557H95.6639C97.5813 14.9557 98.719 15.9719 98.719 17.6738C98.719 19.5473 97.6964 20.4618 95.5936 20.4618Z" fill="#C6C6C6"/>
<path d="M109.022 14.0603C107.321 14.0804 105.697 14.7704 104.507 15.9789C103.317 17.1874 102.658 18.8157 102.675 20.5062C102.649 21.3475 102.793 22.1855 103.101 22.9697C103.409 23.7539 103.874 24.4681 104.467 25.0691C105.06 25.6702 105.769 26.1458 106.552 26.4673C107.335 26.7887 108.175 26.9493 109.022 26.9395C109.869 26.9396 110.706 26.7726 111.487 26.4483C112.268 26.124 112.977 25.6488 113.571 25.0503C114.166 24.4518 114.635 23.742 114.951 22.9619C115.267 22.1819 115.425 21.3472 115.414 20.5062C115.424 18.8101 114.757 17.179 113.559 15.9707C112.361 14.7624 110.729 14.0754 109.022 14.0603ZM114.48 20.5062C114.48 21.943 113.906 23.3208 112.884 24.3367C111.861 25.3526 110.474 25.9234 109.029 25.9234C107.583 25.9234 106.196 25.3526 105.173 24.3367C104.151 23.3208 103.577 21.943 103.577 20.5062C103.577 19.0695 104.151 17.6917 105.173 16.6758C106.196 15.6598 107.583 15.0891 109.029 15.0891C110.474 15.0891 111.861 15.6598 112.884 16.6758C113.906 17.6917 114.48 19.0695 114.48 20.5062Z" fill="#C6C6C6"/>
<path d="M125.704 23.364C125.704 25.1359 124.208 26.0631 122.725 26.0631C121.243 26.0631 119.76 25.1359 119.76 23.364V14.073H118.827V23.364C118.827 25.8281 120.84 26.9458 122.713 26.9458C124.585 26.9458 126.612 25.7138 126.612 23.364V14.073H125.691L125.704 23.364Z" fill="#C6C6C6"/>
<path d="M133.527 14.0603H130.095V26.9395H130.97V21.751H133.527C134.039 21.7721 134.549 21.6884 135.027 21.505C135.505 21.3217 135.939 21.0426 136.304 20.6852C136.668 20.3278 136.955 19.8997 137.146 19.4275C137.337 18.9554 137.428 18.4492 137.413 17.9406C137.429 17.4284 137.339 16.9184 137.15 16.4417C136.961 15.9651 136.675 15.5319 136.311 15.1687C135.948 14.8054 135.513 14.5198 135.034 14.3292C134.556 14.1386 134.043 14.0471 133.527 14.0603ZM136.506 17.9914C136.518 18.3796 136.448 18.766 136.302 19.126C136.156 19.4861 135.935 19.8119 135.655 20.0825C135.375 20.3532 135.041 20.5629 134.674 20.6982C134.308 20.8335 133.917 20.8914 133.527 20.8683H130.97V14.9113H133.527C133.926 14.9152 134.32 14.9987 134.686 15.1568C135.052 15.3149 135.382 15.5444 135.656 15.8317C135.931 16.119 136.145 16.4582 136.286 16.8292C136.426 17.2002 136.49 17.5954 136.474 17.9914H136.506Z" fill="#C6C6C6"/>
<path d="M48.7695 20.7923V21.6941H54.4068C54.2317 22.9136 53.6166 24.0285 52.676 24.8311C51.7354 25.6337 50.5334 26.0693 49.2936 26.057C47.8407 26.0336 46.4562 25.4402 45.442 24.4063C44.4278 23.3724 43.8663 21.9819 43.88 20.5382C43.8772 19.5954 44.1091 18.6665 44.5552 17.8344C45.0013 17.0022 45.6476 16.2927 46.4366 15.7689C46.8324 15.5144 47.2628 15.3176 47.7149 15.1846C47.7563 15.1682 47.799 15.1554 47.8427 15.1465C48.0256 15.0959 48.2113 15.0556 48.3988 15.0258L48.5841 14.9941C48.8277 14.9607 49.0733 14.9437 49.3191 14.9433C49.5863 14.9436 49.8531 14.9606 50.1181 14.9941H50.3098C50.558 15.0283 50.8036 15.0793 51.0448 15.1465C51.2853 15.2161 51.5203 15.3031 51.7479 15.4069L51.8757 15.464C52.0978 15.5706 52.3115 15.6938 52.5149 15.8324L52.7322 15.9912C52.8664 16.0928 52.9943 16.2007 53.1221 16.315C53.2562 16.4334 53.3842 16.5585 53.5056 16.6897H54.6624C54.5129 16.4773 54.3485 16.2757 54.1703 16.0864L54.068 15.9848C53.8831 15.7933 53.6867 15.613 53.48 15.445L53.3777 15.3624C53.1744 15.2009 52.9609 15.0524 52.7386 14.9179L52.5085 14.7845C52.4758 14.7631 52.4416 14.744 52.4062 14.7274C52.1989 14.6218 51.9855 14.5284 51.7671 14.4479L51.6648 14.4162C51.4708 14.3457 51.2722 14.2884 51.0704 14.2447L50.9106 14.2066C50.7169 14.162 50.5205 14.1302 50.3226 14.1113H50.1373C49.8816 14.1113 49.6132 14.0669 49.3383 14.0669C49.0821 14.0687 48.8261 14.0835 48.5713 14.1113H48.4371C48.2223 14.1361 48.009 14.1722 47.798 14.2193H47.7213C47.505 14.2742 47.2917 14.3399 47.0821 14.4162C46.8624 14.4936 46.6488 14.587 46.443 14.6956C45.3872 15.2562 44.5055 16.0924 43.8928 17.1142C43.2801 18.1359 42.9596 19.3044 42.966 20.4938C42.9533 21.3299 43.107 22.1603 43.4181 22.9372C43.7292 23.7142 44.1917 24.4225 44.779 25.0214C45.3664 25.6203 46.0669 26.0981 46.8406 26.4273C47.6142 26.7565 48.4456 26.9306 49.2872 26.9397C50.0859 26.9604 50.8806 26.8202 51.6233 26.5276C52.366 26.2349 53.0414 25.7958 53.6088 25.2368C54.1762 24.6779 54.6237 24.0105 54.9245 23.275C55.2254 22.5395 55.3732 21.7512 55.3591 20.9574V20.805L48.7695 20.7923Z" fill="#C6C6C6"/>
<path d="M83.0343 20.792V21.6938H88.6716C88.4965 22.9134 87.8814 24.0282 86.9408 24.8308C86.0002 25.6334 84.7982 26.0691 83.5584 26.0568C82.6951 26.037 81.8481 25.8188 81.0838 25.4194C80.3195 25.02 79.6587 24.4501 79.1531 23.7545C78.6476 23.0588 78.311 22.2563 78.1698 21.4098C78.0287 20.5633 78.0867 19.6958 78.3394 18.8753C78.5921 18.0548 79.0326 17.3036 79.6264 16.6806C80.2202 16.0576 80.9511 15.5796 81.7619 15.2842C82.5726 14.9888 83.4412 14.884 84.2996 14.978C85.158 15.0719 85.9828 15.3621 86.7094 15.8258C86.8845 15.9436 87.0531 16.0708 87.2143 16.2068C87.3951 16.3589 87.5639 16.5245 87.7193 16.7022H88.8761C88.7234 16.4804 88.5569 16.2683 88.3776 16.0671L88.2817 15.9655L88.1603 15.8512C88.0452 15.7369 87.9366 15.6226 87.8151 15.521C87.6937 15.4194 87.47 15.2415 87.291 15.1145L87.2207 15.0701C87.0407 14.9479 86.8528 14.8376 86.6583 14.7398H86.6199C85.6616 14.2667 84.6028 14.0293 83.5328 14.0476C82.6858 14.0525 81.8483 14.2246 81.0688 14.5539C80.2894 14.8832 79.5836 15.3632 78.9925 15.9659C78.4013 16.5686 77.9367 17.2821 77.6255 18.0648C77.3142 18.8475 77.1627 19.6839 77.1797 20.5253C77.1729 21.3604 77.332 22.1885 77.6478 22.9624C77.9636 23.7363 78.4299 24.4407 79.02 25.0353C79.6101 25.6299 80.3125 26.1031 81.0868 26.4276C81.8612 26.7522 82.6924 26.9218 83.5328 26.9268C84.3326 26.9476 85.1284 26.807 85.872 26.5135C86.6156 26.2201 87.2916 25.7799 87.8591 25.2195C88.4267 24.6592 88.874 23.9903 89.174 23.2533C89.474 22.5163 89.6206 21.7266 89.6047 20.9318V20.7793L83.0343 20.792Z" fill="#C6C6C6"/>
<path d="M132.677 0H127.96H123.243H118.526H113.809H109.086H104.369H99.6522H94.9353H90.2183H85.5014H80.7845H76.0676H71.3506H66.6337H61.9104H57.1935H52.4766H47.7596H43.0427H38.3258H33.6088H28.8919H24.175H19.4517H14.7348H10.0178H5.30091H0.583984V4.6868V9.37361H5.30091V4.6868H10.0178H14.7348H19.4517H24.175H28.8919H33.6088H38.3258H43.0427H47.7596H52.4766H57.1935H61.9104H66.6337H71.3506H76.0676H80.7845H85.5014H90.2183H94.9353H99.6522H104.369H109.086H113.809H118.526H123.243H127.96H132.677V9.37361H137.394V4.6868V0H132.677Z" fill="#E03D3B"/>
<path d="M5.30091 41.0001H10.0178H14.7348H19.4517H24.175H28.8919H33.6088H38.3258H43.0427H47.7596H52.4766H57.1935H61.9104H66.6337H71.3506H76.0676H80.7845H85.5014H90.2183H94.9353H99.6522H104.369H109.086H113.809H118.526H123.243H127.96H132.677H137.394V36.3133V31.6265H132.677V36.3133H127.96H123.243H118.526H113.809H109.086H104.369H99.6522H94.9353H90.2183H85.5014H80.7845H76.0676H71.3506H66.6337H61.9104H57.1935H52.4766H47.7596H43.0427H38.3258H33.6088H28.8919H24.175H19.4517H14.7348H10.0178H5.30091V31.6265H0.583984V36.3133V41.0001H5.30091Z" fill="#BBBBBB"/>
</g>
<defs>
<clipPath id="clip0">
<rect width="136.81" height="41" fill="white" transform="translate(0.583984)"/>
</clipPath>
</defs>
</svg>

<?xml version="1.0" encoding="UTF-8" standalone="no"?>
<svg width="138" xmlns="http://www.w3.org/2000/svg" fill="none" viewBox="0 0 138 41" height="41">
 <g clip-path="url(#clip0)">
  <path d="m6.9307 14.06c-1.7009 0.022-3.3238 0.713-4.5133 1.921-1.1896 1.208-1.8488 2.835-1.8335 4.525-0.02678 0.842 0.1181 1.68 0.4259 2.464 0.3079 0.784 0.7723 1.498 1.3653 2.099s1.3023 1.077 2.0853 1.398c0.7829 0.322 1.6232 0.482 2.4703 0.473 0.8464 0 1.6843-0.167 2.4653-0.492 0.781-0.324 1.489-0.799 2.084-1.398 0.594-0.598 1.063-1.308 1.38-2.088 0.316-0.78 0.473-1.615 0.462-2.456 0.01-1.696-0.657-3.327-1.855-4.535-1.198-1.209-2.8293-1.896-4.5363-1.911zm5.4643 6.446c0.025 0.727-0.098 1.45-0.362 2.128s-0.663 1.296-1.173 1.816c-0.511 0.52-1.1224 0.933-1.7976 1.212-0.6752 0.28-1.4003 0.42-2.1317 0.414-0.73 0.006-1.4536-0.136-2.1271-0.416-0.6734-0.28-1.2827-0.693-1.7911-1.213-0.5084-0.521-0.9053-1.139-1.1667-1.816s-0.382-1.4-0.3543-2.125c-0.0251-0.727 0.0986-1.452 0.3638-2.131 0.2653-0.679 0.6664-1.297 1.1791-1.817s1.1264-0.932 1.8038-1.209c0.6774-0.278 1.4045-0.416 2.1372-0.406 0.7276-0.002 1.4482 0.142 2.1185 0.423s1.2771 0.693 1.7831 1.213c0.506 0.519 0.901 1.135 1.162 1.81s0.382 1.395 0.356 2.117z" fill="#C6C6C6"/>
  <path d="m22.315 20.284c0.325-0.351 0.575-0.764 0.734-1.214s0.225-0.927 0.193-1.402c-0.038-2.217-1.547-3.595-3.937-3.595h-3.637v12.873h0.927v-5.608h1.687l4.091 5.208 0.319 0.4h1.163l-4.474-5.64c1.074 0.048 2.125-0.318 2.934-1.022zm-5.752-5.328h2.748c1.917 0 3.049 1.016 3.049 2.718 0 1.905-1.016 2.788-3.119 2.788h-2.646l-0.032-5.506z" fill="#C6C6C6"/>
  <path d="m25.421 14.962h3.164v11.857h0.901v-11.857h3.164v-0.902h-7.229v0.902z" fill="#C6C6C6"/>
  <path d="m34.81 26.946h6.162v-0.915h-5.241v-5.061h5.171v-0.921h-5.171v-5.061h5.241v-0.915h-6.162v12.873z" fill="#C6C6C6"/>
  <path d="m63.106 14.162v-0.102h-1.253l-4.666 12.88h1.003l1.618-4.656h5.279l1.694 4.656h0.997s-2.397-6.446-4.672-12.778zm1.7 7.278h-4.666l2.307-6.452 2.359 6.452z" fill="#C6C6C6"/>
  <path d="m98.694 20.284c0.331-0.348 0.588-0.759 0.753-1.209s0.235-0.929 0.205-1.407c0-2.217-1.54-3.595-3.937-3.595h-3.656v12.873h0.921v-5.608h1.687l4.41 5.608h1.143l-4.435-5.64c1.066 0.042 2.106-0.324 2.909-1.022zm-3.1 0.178h-2.646v-5.506h2.716c1.917 0 3.055 1.016 3.055 2.718 0 1.873-1.023 2.788-3.125 2.788z" fill="#C6C6C6"/>
  <path d="m109.02 14.06c-1.7 0.02-3.32 0.71-4.51 1.919-1.19 1.208-1.85 2.837-1.83 4.527-0.03 0.842 0.11 1.68 0.42 2.464s0.77 1.498 1.37 2.099c0.59 0.601 1.3 1.077 2.08 1.398 0.79 0.322 1.63 0.482 2.47 0.473 0.85 0 1.69-0.167 2.47-0.492 0.78-0.324 1.49-0.799 2.08-1.398 0.6-0.598 1.07-1.308 1.38-2.088 0.32-0.78 0.47-1.615 0.46-2.456 0.01-1.696-0.65-3.327-1.85-4.535-1.2-1.209-2.83-1.896-4.54-1.911zm5.46 6.446c0 1.437-0.57 2.815-1.6 3.831-1.02 1.016-2.41 1.586-3.85 1.586-1.45 0-2.83-0.57-3.86-1.586-1.02-1.016-1.59-2.394-1.59-3.831 0-1.436 0.57-2.814 1.59-3.83 1.03-1.016 2.41-1.587 3.86-1.587 1.44 0 2.83 0.571 3.85 1.587 1.03 1.016 1.6 2.394 1.6 3.83z" fill="#C6C6C6"/>
  <path d="m125.7 23.364c0 1.772-1.49 2.699-2.98 2.699-1.48 0-2.96-0.927-2.96-2.699v-9.291h-0.93v9.291c0 2.464 2.01 3.582 3.88 3.582s3.9-1.232 3.9-3.582v-9.291h-0.92l0.01 9.291z" fill="#C6C6C6"/>
  <path d="m133.53 14.06h-3.43v12.88h0.87v-5.189h2.56c0.51 0.021 1.02-0.063 1.5-0.246 0.47-0.183 0.91-0.462 1.27-0.82 0.37-0.357 0.66-0.785 0.85-1.257 0.19-0.473 0.28-0.979 0.26-1.487 0.02-0.513-0.07-1.023-0.26-1.499-0.19-0.477-0.47-0.91-0.84-1.273-0.36-0.364-0.8-0.649-1.28-0.84-0.47-0.19-0.99-0.282-1.5-0.269zm2.98 3.931c0.01 0.389-0.06 0.775-0.21 1.135-0.14 0.36-0.36 0.686-0.64 0.956-0.28 0.271-0.62 0.481-0.99 0.616-0.36 0.136-0.75 0.193-1.14 0.17h-2.56v-5.957h2.56c0.4 0.004 0.79 0.088 1.16 0.246 0.36 0.158 0.69 0.387 0.97 0.675 0.27 0.287 0.48 0.626 0.63 0.997 0.14 0.371 0.2 0.766 0.18 1.162h0.04z" fill="#C6C6C6"/>
  <path d="m48.77 20.792v0.902h5.637c-0.175 1.22-0.79 2.334-1.731 3.137s-2.143 1.238-3.382 1.226c-1.453-0.023-2.838-0.617-3.852-1.651s-1.576-2.424-1.562-3.868c-0.003-0.943 0.229-1.872 0.675-2.704s1.093-1.541 1.882-2.065c0.395-0.255 0.826-0.451 1.278-0.584 0.041-0.017 0.084-0.03 0.128-0.039 0.183-0.05 0.368-0.09 0.556-0.12l0.185-0.032c0.244-0.033 0.489-0.05 0.735-0.051 0.267 0.001 0.534 0.018 0.799 0.051h0.192c0.248 0.034 0.494 0.085 0.735 0.152 0.24 0.07 0.475 0.157 0.703 0.261l0.128 0.057c0.222 0.107 0.436 0.23 0.639 0.368l0.217 0.159c0.134 0.102 0.262 0.21 0.39 0.324 0.134 0.118 0.262 0.243 0.384 0.375h1.156c-0.149-0.213-0.314-0.414-0.492-0.604l-0.102-0.101c-0.185-0.192-0.381-0.372-0.588-0.54l-0.102-0.083c-0.204-0.161-0.417-0.31-0.639-0.444l-0.231-0.134c-0.032-0.021-0.066-0.04-0.102-0.057-0.207-0.105-0.42-0.199-0.639-0.279l-0.102-0.032c-0.194-0.07-0.393-0.128-0.595-0.171l-0.159-0.038c-0.194-0.045-0.391-0.077-0.588-0.096h-0.186c-0.255 0-0.524-0.044-0.799-0.044-0.256 0.002-0.512 0.017-0.767 0.044h-0.134c-0.215 0.025-0.428 0.061-0.639 0.108h-0.077c-0.216 0.055-0.429 0.121-0.639 0.197-0.22 0.078-0.433 0.171-0.639 0.28-1.056 0.56-1.937 1.396-2.55 2.418s-0.933 2.19-0.927 3.38c-0.013 0.836 0.141 1.666 0.452 2.443s0.774 1.485 1.361 2.084 1.288 1.077 2.062 1.406c0.773 0.329 1.605 0.504 2.446 0.513 0.799 0.02 1.594-0.12 2.336-0.412 0.743-0.293 1.418-0.732 1.986-1.291 0.567-0.559 1.015-1.227 1.315-1.962 0.301-0.735 0.449-1.524 0.435-2.318v-0.152l-6.589-0.013z" fill="#C6C6C6"/>
  <path d="m83.034 20.792v0.902h5.638c-0.176 1.219-0.791 2.334-1.731 3.137-0.941 0.802-2.143 1.238-3.383 1.226-0.863-0.02-1.71-0.238-2.474-0.638-0.764-0.399-1.425-0.969-1.931-1.665-0.505-0.695-0.842-1.498-0.983-2.344-0.141-0.847-0.083-1.714 0.169-2.535 0.253-0.82 0.694-1.571 1.287-2.194 0.594-0.623 1.325-1.101 2.136-1.397 0.811-0.295 1.679-0.4 2.538-0.306 0.858 0.094 1.683 0.384 2.409 0.848 0.175 0.118 0.344 0.245 0.505 0.381 0.181 0.152 0.35 0.317 0.505 0.495h1.157c-0.153-0.222-0.319-0.434-0.498-0.635l-0.096-0.101-0.122-0.115c-0.115-0.114-0.223-0.228-0.345-0.33-0.121-0.102-0.345-0.279-0.524-0.407l-0.07-0.044c-0.18-0.122-0.368-0.232-0.563-0.33h-0.038c-0.958-0.473-2.017-0.711-3.087-0.692-0.847 0.004-1.685 0.177-2.464 0.506-0.78 0.329-1.485 0.809-2.077 1.412-0.591 0.603-1.055 1.316-1.366 2.099-0.312 0.783-0.463 1.619-0.446 2.46-0.007 0.835 0.152 1.663 0.468 2.437s0.782 1.479 1.372 2.073c0.59 0.595 1.292 1.068 2.067 1.393 0.774 0.324 1.605 0.494 2.446 0.499 0.8 0.021 1.595-0.12 2.339-0.413 0.744-0.294 1.42-0.734 1.987-1.294 0.568-0.561 1.015-1.23 1.315-1.967s0.447-1.526 0.431-2.321v-0.153l-6.571 0.013z" fill="#C6C6C6"/>
  <path d="m132.68 0h-132.11v9.3736h4.7169v-4.6868h127.38v4.6868h4.71v-9.3736h-4.71z" fill="#E03D3B"/>
  <path d="m5.3009 41h132.09v-9.374h-4.71v4.687h-127.39v-4.687h-4.7169v9.374h4.7169z" fill="#bbb"/>
 </g>
 <defs>
  <clipPath id="clip0">
   <rect width="136.81" fill="#fff" transform="translate(.58398)" height="41"/>
  </clipPath>
 </defs>
</svg>
